dist/assets/img/check-dark.svg

<svg width="40" height="40" viewBox="0 0 40 40" fill="none" xmlns="http://www.w3.org/2000/svg">
<path d="M15.9606 24.3249L16.6677 25.0301L17.3738 24.3239L29.3142 12.3835L30.255 13.331L16.6667 26.9193L9.74759 20.0002L10.6844 19.0634L15.9606 24.3249ZM20 2.3335C10.2811 2.3335 2.33337 10.2812 2.33337 20.0002C2.33337 29.7191 10.2811 37.6668 20 37.6668C29.719 37.6668 37.6667 29.7191 37.6667 20.0002C37.6667 10.2812 29.719 2.3335 20 2.3335Z" fill="white" stroke="black" stroke-width="2"/>
</svg>

<svg width="40" height="40" viewBox="0 0 40 40" fill="none" xmlns="http://www.w3.org/2000/svg"><path d="M15.96 24.325l.708.705.706-.706 11.94-11.94.941.947-13.588 13.588L9.747 20l.937-.937 5.277 5.262zM20 2.334C10.281 2.334 2.333 10.28 2.333 20S10.281 37.667 20 37.667c9.719 0 17.667-7.948 17.667-17.667 0-9.719-7.948-17.666-17.667-17.666z" fill="#fff" stroke="#000" stroke-width="2"/></svg>
